X: 204
T: Iron Legs
R: Hornpipe
M: 4/4
Q: 165
L: 1/8
K: D
AG|"D"F2 AF "A"E2 AG|"D"FG"A"EF "D"D2 A2|"G"B2 "A"c2 "Bm"d2 ed|
"A"cd"G"Bc "A"A2 AG|"D"F2 AF "A"E2 AG|"D"FG"A"EF "Bm"D2 A2|
"G"Bcde "A"fedc|1 "D"d4 d2:|2 "G"d4-"D"d2de||
|:"D"fgfg efef|"D"fgfg "A/C#"efef|"Bm"dede cdcd|"Bm"dede "A"cdcd|
"G"BcBc ABAB|"G"BcBc "D/F#"A2A2|"G"Bcde "A"fedc|1 "D"d4 d2 de:|2 "G"d4-"D"d4||

%%newpage
%%textfont * 14
%%begintext justify
%%32 Bar Jigs
%%endtext
